svg/fluentui-system-icons/ic_fluent_eye_16_regular.svg

<svg width="16" height="16" viewBox="0 0 16 16" fill="none" xmlns="http://www.w3.org/2000/svg">
<path d="M2.98444 8.62471L2.98346 8.62815C2.91251 8.8948 2.63879 9.05404 2.37202 8.9833C1.94098 8.86907 2.01687 8.37186 2.01687 8.37186L2.03453 8.31047C2.03453 8.31047 2.06063 8.22636 2.08166 8.1653C2.12369 8.04329 2.18795 7.87274 2.27931 7.66977C2.46154 7.26493 2.75443 6.72477 3.19877 6.18295C4.09629 5.08851 5.60509 4 8.00017 4C10.3952 4 11.904 5.08851 12.8016 6.18295C13.2459 6.72477 13.5388 7.26493 13.721 7.66977C13.8124 7.87274 13.8766 8.04329 13.9187 8.1653C13.9397 8.22636 13.9552 8.27541 13.9658 8.31047C13.9711 8.328 13.9752 8.34204 13.9781 8.35236L13.9816 8.365L13.9827 8.36916L13.9832 8.37069L13.9835 8.37186C14.0542 8.63878 13.8952 8.91253 13.6283 8.9833C13.3618 9.05397 13.0885 8.89556 13.0172 8.62937L13.0169 8.62815L13.0159 8.62471L13.0085 8.5997C13.0014 8.57616 12.9898 8.53927 12.9732 8.49095C12.9399 8.39422 12.8866 8.25227 12.8091 8.08023C12.6538 7.73508 12.4041 7.27523 12.0283 6.81706C11.2857 5.9115 10.0445 5 8.00017 5C5.95584 5 4.71464 5.9115 3.97201 6.81706C3.59627 7.27523 3.34655 7.73508 3.19119 8.08023C3.11375 8.25227 3.06047 8.39422 3.02715 8.49095C3.01051 8.53927 2.9989 8.57616 2.99179 8.5997L2.98444 8.62471ZM8.00024 7C6.61953 7 5.50024 8.11929 5.50024 9.5C5.50024 10.8807 6.61953 12 8.00024 12C9.38096 12 10.5002 10.8807 10.5002 9.5C10.5002 8.11929 9.38096 7 8.00024 7ZM6.50024 9.5C6.50024 8.67157 7.17182 8 8.00024 8C8.82867 8 9.50024 8.67157 9.50024 9.5C9.50024 10.3284 8.82867 11 8.00024 11C7.17182 11 6.50024 10.3284 6.50024 9.5Z" fill="#212121"/>
</svg>

<svg xmlns="http://www.w3.org/2000/svg" width="16" height="16"><path d="M2.984 8.625v.003a.5.5 0 0 1-.612.355c-.431-.114-.355-.611-.355-.611l.018-.062s.026-.084.047-.145a6.7 6.7 0 0 1 1.117-1.982C4.096 5.089 5.605 4 8 4s3.904 1.089 4.802 2.183a6.7 6.7 0 0 1 1.117 1.982 4.077 4.077 0 0 1 .06.187l.003.013v.004l.001.002a.5.5 0 0 1-.966.258l-.001-.004-.008-.025a4.872 4.872 0 0 0-.2-.52 5.696 5.696 0 0 0-.78-1.263C11.286 5.912 10.044 5 8 5c-2.044 0-3.285.912-4.028 1.817a5.7 5.7 0 0 0-.945 1.674 3.018 3.018 0 0 0-.035.109l-.008.025ZM8 7a2.5 2.5 0 1 0 0 5 2.5 2.5 0 0 0 0-5ZM6.5 9.5a1.5 1.5 0 1 1 3 0 1.5 1.5 0 0 1-3 0Z"/></svg>
